assets/sonr-icons/branch.svg

<svg xmlns="http://www.w3.org/2000/svg" width="24" height="24" fill="none" viewBox="0 0 24 24"><path fill="#000" d="M7 8H10C10.552 8 11 8.448 11 9V15C11 15.552 10.552 16 10 16H7V18H10C11.657 18 13 16.657 13 15V13H17V11H13V9C13 7.343 11.657 6 10 6H7V8.001V8Z"/><path fill="#000" d="M2 7C2 5.343 3.343 4 5 4C6.657 4 8 5.343 8 7C8 8.657 6.657 10 5 10C3.343 10 2 8.657 2 7ZM5 6C4.448 6 4 6.448 4 7C4 7.552 4.448 8 5 8C5.552 8 6 7.552 6 7C6 6.448 5.552 6 5 6ZM4 17C4 17.552 4.448 18 5 18C5.552 18 6 17.552 6 17C6 16.448 5.552 16 5 16C4.448 16 4 16.448 4 17ZM5 14C3.343 14 2 15.343 2 17C2 18.657 3.343 20 5 20C6.657 20 8 18.657 8 17C8 15.343 6.657 14 5 14ZM19 13C18.448 13 18 12.552 18 12C18 11.448 18.448 11 19 11C19.552 11 20 11.448 20 12C20 12.552 19.552 13 19 13ZM16 12C16 10.343 17.343 9 19 9C20.657 9 22 10.343 22 12C22 13.657 20.657 15 19 15C17.343 15 16 13.657 16 12Z"/></svg>

<svg xmlns="http://www.w3.org/2000/svg" width="24" height="24" fill="none"><path fill="currentColor" d="M7 8h3a1 1 0 0 1 1 1v6a1 1 0 0 1-1 1H7v2h3a3 3 0 0 0 3-3v-2h4v-2h-4V9a3 3 0 0 0-3-3H7z"/><path fill="currentColor" d="M2 7a3 3 0 1 1 6 0 3 3 0 0 1-6 0m3-1a1 1 0 1 0 0 2 1 1 0 0 0 0-2M4 17a1 1 0 1 0 2 0 1 1 0 0 0-2 0m1-3a3 3 0 1 0 0 6 3 3 0 0 0 0-6m14-1a1 1 0 1 1 0-2 1 1 0 0 1 0 2m-3-1a3 3 0 1 1 6 0 3 3 0 0 1-6 0"/></svg>
